public/home/logo2.svg

<svg width="216" height="64" viewBox="0 0 216 64" fill="none" xmlns="http://www.w3.org/2000/svg">
<g clip-path="url(#clip0_561_26)">
<path d="M44.3805 19.5741H32.7344V15.9346H44.3805C48.4007 15.9346 51.6595 19.1935 51.6595 23.2135V34.8598H48.02V23.2135C48.02 21.2035 46.3906 19.5741 44.3805 19.5741Z" fill="white"/>
<path d="M31.279 39.9547H42.9251V43.5941H31.279C27.2589 43.5941 24 40.3354 24 36.3152V24.6689H27.6395V36.3152C27.6395 38.3253 29.2689 39.9547 31.279 39.9547Z" fill="white"/>
<path fill-rule="evenodd" clip-rule="evenodd" d="M45.1085 29.7643C45.1085 33.7844 41.8498 37.0432 37.8297 37.0432C33.8097 37.0432 30.5508 33.7844 30.5508 29.7643C30.5508 25.7442 33.8097 22.4854 37.8297 22.4854C41.8498 22.4854 45.1085 25.7442 45.1085 29.7643ZM41.4692 29.7643C41.4692 31.7743 39.8397 33.4038 37.8297 33.4038C35.8197 33.4038 34.1903 31.7743 34.1903 29.7643C34.1903 27.7543 35.8197 26.1248 37.8297 26.1248C39.8397 26.1248 41.4692 27.7543 41.4692 29.7643Z" fill="white"/>
<path d="M67.1917 41.2764C65.8135 41.2764 64.5728 41.0402 63.4696 40.5674C62.3669 40.0754 61.5003 39.3861 60.8703 38.4999C60.24 37.6136 59.9248 36.5797 59.9248 35.3979H63.529C63.6076 36.2841 63.9522 37.0128 64.563 37.5842C65.1929 38.1552 66.0693 38.4409 67.1917 38.4409C68.3538 38.4409 69.2597 38.165 69.9097 37.6136C70.5593 37.0426 70.8844 36.314 70.8844 35.4278C70.8844 34.7385 70.6776 34.1773 70.2642 33.7438C69.87 33.3105 69.3681 32.9757 68.7574 32.7394C68.1668 32.5031 67.3395 32.2471 66.276 31.9714C64.9371 31.6169 63.8442 31.2624 62.9972 30.9079C62.17 30.5338 61.461 29.9627 60.8703 29.1946C60.2793 28.4266 59.9841 27.4025 59.9841 26.1224C59.9841 24.9408 60.2793 23.9069 60.8703 23.0207C61.461 22.1345 62.2883 21.4551 63.3517 20.9824C64.4152 20.5097 65.6461 20.2734 67.0443 20.2734C69.0333 20.2734 70.658 20.7756 71.9183 21.78C73.1983 22.7647 73.9073 24.1235 74.0452 25.8565H70.3231C70.2642 25.1082 69.9097 24.4681 69.2597 23.9364C68.6097 23.4047 67.7533 23.1388 66.6899 23.1388C65.7247 23.1388 64.9371 23.385 64.3264 23.8773C63.716 24.3697 63.4107 25.0787 63.4107 26.0043C63.4107 26.6344 63.5978 27.1563 63.9719 27.5699C64.3657 27.9638 64.8581 28.2789 65.4492 28.5152C66.0399 28.7515 66.8471 29.0075 67.8712 29.2832C69.2302 29.6574 70.333 30.0316 71.1799 30.4058C72.0464 30.7799 72.7751 31.3609 73.3657 32.1486C73.9765 32.9167 74.2814 33.9505 74.2814 35.2505C74.2814 36.294 73.9961 37.2788 73.4251 38.2043C72.8733 39.1298 72.0563 39.8785 70.9732 40.4495C69.9097 41.0009 68.6494 41.2764 67.1917 41.2764Z" fill="white"/>
<path d="M84.9904 24.5273C86.2708 24.5273 87.4129 24.7932 88.4174 25.3249C89.4412 25.8566 90.2389 26.6444 90.81 27.6882C91.381 28.7319 91.6667 29.9923 91.6667 31.4693V41.0698H88.3286V31.9715C88.3286 30.5142 87.9642 29.4015 87.2356 28.6334C86.507 27.8457 85.5123 27.4518 84.252 27.4518C82.9916 27.4518 81.9871 27.8457 81.2389 28.6334C80.5102 29.4015 80.1459 30.5142 80.1459 31.9715V41.0698H76.7783V24.7932H80.1459V26.6542C80.6973 25.9847 81.3965 25.4628 82.2434 25.0886C83.1099 24.7144 84.0256 24.5273 84.9904 24.5273Z" fill="white"/>
<path d="M93.3623 32.8577C93.3623 31.2231 93.6971 29.7757 94.3668 28.5153C95.0561 27.2549 95.9816 26.28 97.1434 25.5908C98.3251 24.8818 99.6247 24.5273 101.043 24.5273C102.323 24.5273 103.436 24.7834 104.381 25.2954C105.346 25.7877 106.114 26.4081 106.685 27.1564V24.7932H110.082V41.0698H106.685V38.6477C106.114 39.4156 105.336 40.0558 104.351 40.5675C103.367 41.0796 102.244 41.3358 100.984 41.3358C99.5854 41.3358 98.3054 40.9813 97.1434 40.2724C95.9816 39.5437 95.0561 38.5393 94.3668 37.2592C93.6971 35.9596 93.3623 34.4922 93.3623 32.8577ZM106.685 32.9168C106.685 31.7942 106.449 30.8194 105.976 29.9923C105.523 29.1652 104.922 28.535 104.174 28.1017C103.426 27.6685 102.618 27.4518 101.752 27.4518C100.885 27.4518 100.078 27.6685 99.3296 28.1017C98.5809 28.5153 97.9706 29.1356 97.4978 29.9628C97.0451 30.7702 96.8187 31.7351 96.8187 32.8577C96.8187 33.9801 97.0451 34.9649 97.4978 35.8118C97.9706 36.6584 98.5809 37.3084 99.3296 37.7615C100.098 38.1946 100.905 38.4111 101.752 38.4111C102.618 38.4111 103.426 38.1946 104.174 37.7615C104.922 37.328 105.523 36.698 105.976 35.8708C106.449 35.0239 106.685 34.0394 106.685 32.9168Z" fill="white"/>
<path d="M116.396 27.1859C116.967 26.4376 117.745 25.8074 118.73 25.2954C119.714 24.7834 120.827 24.5273 122.068 24.5273C123.486 24.5273 124.775 24.8818 125.938 25.5908C127.119 26.28 128.045 27.2549 128.714 28.5153C129.384 29.7757 129.719 31.2231 129.719 32.8577C129.719 34.4922 129.384 35.9596 128.714 37.2592C128.045 38.5393 127.119 39.5437 125.938 40.2724C124.775 40.9813 123.486 41.3358 122.068 41.3358C120.827 41.3358 119.724 41.0894 118.759 40.5974C117.794 40.0853 117.007 39.4549 116.396 38.7067V48.8095H113.028V24.7932H116.396V27.1859ZM126.292 32.8577C126.292 31.7351 126.056 30.7702 125.583 29.9628C125.13 29.1356 124.52 28.5153 123.752 28.1017C123.003 27.6685 122.196 27.4518 121.329 27.4518C120.482 27.4518 119.675 27.6685 118.907 28.1017C118.159 28.535 117.548 29.1652 117.075 29.9923C116.623 30.8194 116.396 31.7942 116.396 32.9168C116.396 34.0394 116.623 35.0239 117.075 35.8708C117.548 36.698 118.159 37.328 118.907 37.7615C119.675 38.1946 120.482 38.4111 121.329 38.4111C122.196 38.4111 123.003 38.1946 123.752 37.7615C124.52 37.3084 125.13 36.6584 125.583 35.8118C126.056 34.9649 126.292 33.9801 126.292 32.8577Z" fill="white"/>
<path d="M138.336 41.2764C136.958 41.2764 135.717 41.0402 134.614 40.5674C133.511 40.0754 132.645 39.3861 132.015 38.4999C131.385 37.6136 131.069 36.5797 131.069 35.3979H134.674C134.752 36.2841 135.097 37.0128 135.707 37.5842C136.337 38.1552 137.214 38.4409 138.336 38.4409C139.498 38.4409 140.404 38.165 141.054 37.6136C141.704 37.0426 142.029 36.314 142.029 35.4278C142.029 34.7385 141.822 34.1773 141.409 33.7438C141.015 33.3105 140.513 32.9757 139.902 32.7394C139.311 32.5031 138.484 32.2471 137.421 31.9714C136.082 31.6169 134.988 31.2624 134.142 30.9079C133.315 30.5338 132.606 29.9627 132.015 29.1946C131.424 28.4266 131.129 27.4025 131.129 26.1224C131.129 24.9408 131.424 23.9069 132.015 23.0207C132.606 22.1345 133.433 21.4551 134.496 20.9824C135.56 20.5097 136.791 20.2734 138.189 20.2734C140.178 20.2734 141.803 20.7756 143.063 21.78C144.343 22.7647 145.052 24.1235 145.19 25.8565H141.468C141.409 25.1082 141.054 24.4681 140.404 23.9364C139.754 23.4047 138.897 23.1388 137.834 23.1388C136.869 23.1388 136.082 23.385 135.471 23.8773C134.861 24.3697 134.555 25.0787 134.555 26.0043C134.555 26.6344 134.742 27.1563 135.116 27.5699C135.51 27.9638 136.003 28.2789 136.593 28.5152C137.184 28.7515 137.992 29.0075 139.016 29.2832C140.375 29.6574 141.478 30.0316 142.324 30.4058C143.191 30.7799 143.92 31.3609 144.51 32.1486C145.121 32.9167 145.426 33.9505 145.426 35.2505C145.426 36.294 145.141 37.2788 144.569 38.2043C144.018 39.1298 143.201 39.8785 142.118 40.4495C141.054 41.0009 139.794 41.2764 138.336 41.2764Z" fill="white"/>
<path d="M156.341 24.5277C157.581 24.5277 158.685 24.7936 159.649 25.3253C160.634 25.857 161.402 26.6448 161.954 27.6885C162.525 28.7323 162.81 29.9926 162.81 31.4697V41.0702H159.472V31.9719C159.472 30.5145 159.108 29.4019 158.379 28.6338C157.651 27.8461 156.656 27.4522 155.396 27.4522C154.135 27.4522 153.131 27.8461 152.382 28.6338C151.654 29.4019 151.289 30.5145 151.289 31.9719V41.0702H147.922V19.2104H151.289V26.6841C151.861 25.9949 152.579 25.4631 153.446 25.089C154.332 24.7148 155.297 24.5277 156.341 24.5277Z" fill="white"/>
<path d="M172.689 41.3358C171.153 41.3358 169.765 40.9912 168.524 40.3018C167.284 39.5929 166.309 38.608 165.6 37.3477C164.891 36.0677 164.536 34.5908 164.536 32.9168C164.536 31.2625 164.9 29.7953 165.629 28.5153C166.358 27.2352 167.352 26.2505 168.613 25.5612C169.873 24.872 171.281 24.5273 172.837 24.5273C174.393 24.5273 175.801 24.872 177.061 25.5612C178.322 26.2505 179.316 27.2352 180.045 28.5153C180.774 29.7953 181.138 31.2625 181.138 32.9168C181.138 34.5711 180.764 36.0382 180.015 37.3182C179.267 38.5982 178.243 39.5929 176.943 40.3018C175.663 40.9912 174.245 41.3358 172.689 41.3358ZM172.689 38.4111C173.556 38.4111 174.363 38.2044 175.112 37.791C175.88 37.3775 176.5 36.757 176.973 35.9297C177.445 35.1029 177.682 34.0984 177.682 32.9168C177.682 31.7352 177.455 30.7407 177.002 29.9332C176.549 29.1061 175.948 28.4857 175.2 28.0722C174.452 27.6586 173.644 27.4518 172.778 27.4518C171.912 27.4518 171.104 27.6586 170.356 28.0722C169.627 28.4857 169.046 29.1061 168.613 29.9332C168.18 30.7407 167.963 31.7352 167.963 32.9168C167.963 34.6694 168.406 36.0284 169.292 36.9932C170.198 37.9387 171.33 38.4111 172.689 38.4111Z" fill="white"/>
<path d="M186.918 27.5403V36.5502C186.918 37.1605 187.056 37.6038 187.332 37.8793C187.627 38.1355 188.12 38.2637 188.809 38.2637H190.877V41.0697H188.218C186.702 41.0697 185.54 40.7152 184.733 40.0062C183.925 39.2973 183.521 38.1454 183.521 36.5502V27.5403H181.602V24.7931H183.521V20.7461H186.918V24.7931H190.877V27.5403H186.918Z" fill="white"/>
</g>
<defs>
<clipPath id="clip0_561_26">
<rect width="167" height="34" fill="white" transform="translate(24 15)"/>
</clipPath>
</defs>
</svg>

<svg width="216" height="64" fill="none" xmlns="http://www.w3.org/2000/svg"><g clip-path="url(#a)" fill="#fff"><path d="M44.38 19.574H32.734v-3.64H44.38a7.279 7.279 0 0 1 7.28 7.28V34.86h-3.64V23.214a3.64 3.64 0 0 0-3.64-3.64ZM31.279 39.955h11.646v3.64H31.28A7.279 7.279 0 0 1 24 36.314V24.67h3.64v11.646a3.64 3.64 0 0 0 3.639 3.64Z"/><path fill-rule="evenodd" clip-rule="evenodd" d="M45.108 29.764a7.279 7.279 0 1 1-14.557 0 7.279 7.279 0 0 1 14.558 0Zm-3.639 0a3.64 3.64 0 1 1-7.279 0 3.64 3.64 0 0 1 7.28 0Z"/><path d="M67.192 41.276c-1.378 0-2.62-.236-3.722-.709-1.103-.492-1.97-1.18-2.6-2.067-.63-.886-.945-1.92-.945-3.102h3.604c.079.886.423 1.615 1.034 2.186.63.571 1.506.857 2.629.857 1.162 0 2.068-.276 2.718-.827.65-.571.974-1.3.974-2.186 0-.69-.206-1.25-.62-1.684-.394-.434-.896-.768-1.507-1.005-.59-.236-1.418-.492-2.481-.768-1.339-.354-2.432-.709-3.279-1.063-.827-.374-1.536-.945-2.127-1.713-.59-.768-.886-1.793-.886-3.073 0-1.181.295-2.215.886-3.101.591-.887 1.418-1.566 2.482-2.039 1.063-.472 2.294-.709 3.692-.709 1.99 0 3.614.503 4.874 1.507 1.28.985 1.99 2.343 2.127 4.076h-3.722c-.059-.748-.413-1.388-1.063-1.92-.65-.531-1.507-.797-2.57-.797-.965 0-1.753.246-2.364.738-.61.493-.915 1.202-.915 2.127 0 .63.187 1.152.56 1.566.395.394.887.709 1.478.945.59.236 1.398.492 2.422.768 1.36.374 2.462.749 3.309 1.123a5.35 5.35 0 0 1 2.186 1.743c.61.768.915 1.801.915 3.102 0 1.043-.285 2.028-.856 2.953-.552.926-1.369 1.675-2.452 2.245-1.063.552-2.324.827-3.781.827ZM84.99 24.527c1.28 0 2.423.266 3.427.798 1.024.532 1.822 1.32 2.393 2.363.571 1.044.857 2.304.857 3.781v9.6h-3.338v-9.098c0-1.457-.365-2.57-1.093-3.338-.729-.787-1.724-1.181-2.984-1.181s-2.265.394-3.013 1.181c-.729.768-1.093 1.881-1.093 3.338v9.099h-3.368V24.793h3.368v1.861a5.6 5.6 0 0 1 2.097-1.565 6.855 6.855 0 0 1 2.747-.562ZM93.362 32.858c0-1.635.335-3.082 1.005-4.343.69-1.26 1.615-2.235 2.776-2.924 1.182-.71 2.482-1.064 3.9-1.064 1.28 0 2.393.256 3.338.768.965.493 1.733 1.113 2.304 1.861v-2.363h3.397V41.07h-3.397v-2.422c-.571.768-1.349 1.408-2.334 1.92-.984.512-2.107.768-3.367.768-1.399 0-2.679-.355-3.84-1.064-1.162-.728-2.088-1.733-2.777-3.013-.67-1.3-1.005-2.767-1.005-4.401Zm13.323.059c0-1.123-.236-2.098-.709-2.925-.453-.827-1.054-1.457-1.802-1.89a4.753 4.753 0 0 0-2.422-.65c-.867 0-1.674.216-2.422.65-.75.413-1.36 1.034-1.832 1.86-.453.808-.68 1.773-.68 2.896 0 1.122.227 2.107.68 2.954.473.846 1.083 1.496 1.832 1.95.768.433 1.575.65 2.422.65.866 0 1.674-.217 2.422-.65.748-.434 1.349-1.064 1.802-1.891.473-.847.709-1.832.709-2.954ZM116.396 27.186c.571-.748 1.349-1.379 2.334-1.89.984-.513 2.097-.769 3.338-.769 1.418 0 2.707.355 3.87 1.064 1.181.689 2.107 1.664 2.776 2.924.67 1.26 1.005 2.708 1.005 4.343 0 1.634-.335 3.102-1.005 4.401-.669 1.28-1.595 2.285-2.776 3.013-1.163.71-2.452 1.064-3.87 1.064-1.241 0-2.344-.247-3.309-.739-.965-.512-1.752-1.142-2.363-1.89v10.102h-3.368V24.794h3.368v2.393Zm9.896 5.672c0-1.123-.236-2.088-.709-2.895-.453-.827-1.063-1.448-1.831-1.861a4.756 4.756 0 0 0-2.423-.65c-.847 0-1.654.216-2.422.65-.748.433-1.359 1.063-1.832 1.89-.452.827-.679 1.802-.679 2.925 0 1.122.227 2.107.679 2.954.473.827 1.084 1.457 1.832 1.89.768.434 1.575.65 2.422.65.867 0 1.674-.216 2.423-.65.768-.453 1.378-1.103 1.831-1.95.473-.846.709-1.83.709-2.953ZM138.336 41.276c-1.378 0-2.619-.236-3.722-.709-1.103-.492-1.969-1.18-2.599-2.067-.63-.886-.946-1.92-.946-3.102h3.605c.078.886.423 1.615 1.033 2.186.63.571 1.507.857 2.629.857 1.162 0 2.068-.276 2.718-.827.65-.571.975-1.3.975-2.186 0-.69-.207-1.25-.62-1.684-.394-.434-.896-.768-1.507-1.005-.591-.236-1.418-.492-2.481-.768-1.339-.354-2.433-.709-3.279-1.063-.827-.374-1.536-.945-2.127-1.713-.591-.768-.886-1.793-.886-3.073 0-1.181.295-2.215.886-3.101.591-.887 1.418-1.566 2.481-2.039 1.064-.472 2.295-.709 3.693-.709 1.989 0 3.614.503 4.874 1.507 1.28.985 1.989 2.343 2.127 4.076h-3.722c-.059-.748-.414-1.388-1.064-1.92-.65-.531-1.507-.797-2.57-.797-.965 0-1.752.246-2.363.738-.61.493-.916 1.202-.916 2.127 0 .63.187 1.152.561 1.566.394.394.887.709 1.477.945.591.236 1.399.492 2.423.768 1.359.374 2.462.749 3.308 1.123a5.344 5.344 0 0 1 2.186 1.743c.611.768.916 1.801.916 3.102 0 1.043-.285 2.028-.857 2.953-.551.926-1.368 1.675-2.451 2.245-1.064.552-2.324.827-3.782.827ZM156.341 24.528c1.24 0 2.344.266 3.308.797.985.532 1.753 1.32 2.305 2.364.571 1.043.856 2.304.856 3.78v9.601h-3.338v-9.098c0-1.457-.364-2.57-1.093-3.338-.728-.788-1.723-1.182-2.983-1.182-1.261 0-2.265.394-3.014 1.182-.728.768-1.093 1.88-1.093 3.338v9.098h-3.367V19.21h3.367v7.474a5.675 5.675 0 0 1 2.157-1.595c.886-.374 1.851-.561 2.895-.561ZM172.689 41.336c-1.536 0-2.924-.345-4.165-1.034a7.668 7.668 0 0 1-2.924-2.954c-.709-1.28-1.064-2.757-1.064-4.431 0-1.655.364-3.122 1.093-4.402.729-1.28 1.723-2.265 2.984-2.954 1.26-.689 2.668-1.034 4.224-1.034s2.964.345 4.224 1.034c1.261.69 2.255 1.674 2.984 2.954.729 1.28 1.093 2.747 1.093 4.402 0 1.654-.374 3.121-1.123 4.401a7.845 7.845 0 0 1-3.072 2.984c-1.28.69-2.698 1.034-4.254 1.034Zm0-2.925c.867 0 1.674-.207 2.423-.62.768-.413 1.388-1.034 1.861-1.861.472-.827.709-1.832.709-3.013 0-1.182-.227-2.176-.68-2.984-.453-.827-1.054-1.447-1.802-1.86a4.927 4.927 0 0 0-2.422-.621c-.866 0-1.674.207-2.422.62-.729.414-1.31 1.034-1.743 1.861-.433.808-.65 1.802-.65 2.984 0 1.752.443 3.111 1.329 4.076.906.946 2.038 1.418 3.397 1.418ZM186.918 27.54v9.01c0 .61.138 1.054.414 1.33.295.255.788.384 1.477.384h2.068v2.806h-2.659c-1.516 0-2.678-.355-3.485-1.064-.808-.709-1.212-1.86-1.212-3.456v-9.01h-1.919v-2.747h1.919v-4.047h3.397v4.047h3.959v2.747h-3.959Z"/></g><defs><clipPath id="a"><path fill="#fff" transform="translate(24 15)" d="M0 0h167v34H0z"/></clipPath></defs></svg>
